X:95
T:Put on thy smock on Monday
M:6/8
L:1/8
K:C
%%score 1 2
V:1 clef-treble
V:2 clef-bass octave=-1
V:1
c|[Ec]2GE2G|[Fd]3-[Fd]2G|[Ec]2Bc2d&x3A3|[Gce]3-[Gce]2e|
V:2
z|[CG]6|[CGB]6|[CGc]3F,3|C,6|
V:1
d>ef edc&G3G3|[Gd]2B G>A[FB]|[Ec]2GE2G|[Ec]3-[Ec]2||
V:2
B3c3|[GB]3-[GB]2[Gd]|

